X:1
T:Title
%%score ( 1 2 ) { 3 | 4 }
L:1/8
M:4/4
K:C
V:1 treble nm="Grand Piano, Unnamed-000"
V:2 treble 
V:3 bass nm="Choir Pad, Unnamed-001"
V:4 bass 
V:1
 [CE]2 [CE]>[DF] [EG]2 [EG]2 | [FA]4 [EG]2 [EG]2 | [Ec]2 [Ec]2 [Ec]2 E>[_E^F] | G6 z2 | %4
w: By~William~H.~Doane,~~1870 * * * *||||
 [Ec]2 [Ec]2 [Ec][GB][FA][EG] | [FA]2 [GB]2 [Ac]2 [FA]2 | [EG]2 [DF][CE] [B,D]2 [EG][DF] | [CE]8 | %8
w: ||||
 [B,D]>[A,C] [B,D]>[CE] [DF]2 [DF]2 | [CE]>[DF] [EG]4 [EG]2 | D-[DG]AB [^Fc]2 [DF]2 | [DG]6 [FG]2 | %12
w: ||||
 [Ec]2 [Ec]2 [Ec][GB][FA][EG] | [FA]2 [GB]2 [Ac]2 [FA]2 | [EG]2 [DF][CE] [B,D]2 [EG][DF] | [CE]8 | %16
w: ||||
 [CE]2 [CE]>[DF] [EG]2 [EG]2 | [FA]4 [EG]4 | [FB]2 [FB]>[Ec] [Fd]2 [Fd]2 | [Fd]4 [Ec]4 | %20
w: ||||
 [Ge]2 [Ge]>[Fd] [Ec]2 [Gc]2 | [Fc]4 [FA]2 [FA]2 | [EG]2 [Ec]2 [DB][Ec] [Fd]2 | [Ec]8 |] %24
w: ||||
V:2
 x8 | x8 | x8 | E4 D2 [FG]2 | x8 | x8 | x8 | x8 | x8 | x8 | .^F2 D2 z4 | x8 | x8 | x8 | x8 | x8 | %16
 x8 | x8 | x8 | x8 | x8 | x8 | x8 | x8 |] %24
V:3
 G,2 G,>G, C2 C2 | C4 C2 C2 | A,2 A,2 A,2 C2 | C4[K:bass] B,2 G,2 | G,2 G,2 G,2[K:treble] C2 | %5
 C4 C2 C2 | C2[K:bass] G,2 G,2 G,2 | G,8 | G,2 G,>G, G,2 G,2 | G,2[K:treble] C4 C2 | %10
 A,B,C[K:bass]B, A,2 C2 | B,6 G,2 | G,2 G,2 G,2[K:treble] C2 | C4 C2 C2 | C2[K:bass] G,2 G,2 G,2 | %15
 G,8 | G,2 G,>G,[K:treble] C2 C2 | C4 C4 | D2 D>C[K:bass] B,2 B,2 | B,4 C4 | C2 C>G, G,2 _B,2 | %21
 A,4 C2 C2 | C2 G,2 G,2 G,2 | G,8 |] %24
V:4
 C,2 C,>C, C,2 C,2 | C,4 C,2 C,2 | z4 z2 A,2 | G,6 z2 | C,2 C,2 C,2 C,2 | F,4 F,2 F,2 | %6
 G,2 z2 G,,2 G,,2 | C,8 | G,,2 G,,>G,, G,,2 G,,2 | C,2 C,4 C,2 | D,2 D,2 D,2 D,2 | G,,6 z2 | %12
 C,2 C,2 C,2 C,2 | F,4 F,2 F,2 | G,2 z2 G,,2 G,,2 | C,8 | C,2 C,>C, C,2 C,2 | F,4 C,4 | %18
 G,2 G,>G, G,2 G,2 | G,4 C,4 | C,2 C,>C, C,2 C,2 | F,4 F,2 F,2 | G,2 z2 z2 G,,2 | C,8 |] %24

